img/keyboard/buttons/on.svg

<?xml version="1.0" encoding="utf-8"?>
<!-- Generator: Adobe Illustrator 23.1.0, SVG Export Plug-In . SVG Version: 6.00 Build 0)  -->
<svg version="1.1" id="Layer_8" xmlns="http://www.w3.org/2000/svg" xmlns:xlink="http://www.w3.org/1999/xlink" x="0px" y="0px"
	 viewBox="0 0 121.3 130.8" style="enable-background:new 0 0 121.3 130.8;" xml:space="preserve">
<style type="text/css">
	.st0{fill:#030400;}
	.st1{fill:url(#SVGID_1_);}
	.st2{fill:url(#SVGID_2_);}
	.st3{fill:url(#SVGID_3_);}
	.st4{fill:#859DAF;}
	.st5{fill:#EDDECB;}
</style>
<g>
	<g>
		<path class="st0" d="M117,125.4c-2,3.4-5.6,5.4-9.5,5.4H48.3C28.7,130.8,0,90.5,0,70.9V51.1c0-14,11.3-25.3,25.3-25.3h83.2
			c6.9,0,12.5,5.6,12.5,12.5v55.6C121,99.6,122.9,115.3,117,125.4z"/>
		
			<linearGradient id="SVGID_1_" gradientUnits="userSpaceOnUse" x1="-878.8871" y1="-342.02" x2="-767.8296" y2="-342.02" gradientTransform="matrix(1 0 0 1 884.7571 420)">
			<stop  offset="0" style="stop-color:#211D14"/>
			<stop  offset="2.810000e-02" style="stop-color:#383429"/>
			<stop  offset="3.700000e-02" style="stop-color:#2C2920"/>
			<stop  offset="5.190000e-02" style="stop-color:#211D17"/>
			<stop  offset="7.290000e-02" style="stop-color:#1A1711"/>
			<stop  offset="0.1313" style="stop-color:#181510"/>
			<stop  offset="0.4854" style="stop-color:#1F1E1A"/>
			<stop  offset="0.8981" style="stop-color:#423A2D"/>
			<stop  offset="0.9331" style="stop-color:#443C2E"/>
			<stop  offset="0.9468" style="stop-color:#4B4233"/>
			<stop  offset="0.9567" style="stop-color:#574D3C"/>
			<stop  offset="0.96" style="stop-color:#5D5240"/>
			<stop  offset="0.9855" style="stop-color:#332D22"/>
			<stop  offset="1" style="stop-color:#211D14"/>
		</linearGradient>
		<path class="st1" d="M116.7,110.7c-0.7,9.8-8.7,17.4-18.3,17.4H48.9c-19.4,0-43.1-37.9-43.1-57.8v-17c0-14.1,11.2-25.6,24.9-25.6
			h73.7c6.8,0,12.2,5.6,12.2,12.5v53.6C116.7,97.2,117.2,104,116.7,110.7z"/>
		
			<linearGradient id="SVGID_2_" gradientUnits="userSpaceOnUse" x1="-878.8871" y1="-339.165" x2="-768.0171" y2="-339.165" gradientTransform="matrix(1 0 0 1 884.7571 420)">
			<stop  offset="0" style="stop-color:#7C7563"/>
			<stop  offset="0.9845" style="stop-color:#383226"/>
		</linearGradient>
		<path class="st2" d="M115.4,114.9c-1.3,7.7-7.8,13.2-15.4,13.2H65.4c-18.8,0-59.5-37.3-59.5-56.5v-5.8C5.9,48,20,33.5,37.4,33.5
			h67.2c6.8,0,12.2,5.6,12.2,12.5v47.8C116.7,97.8,116.7,107,115.4,114.9z"/>
		
			<linearGradient id="SVGID_3_" gradientUnits="userSpaceOnUse" x1="-878.8971" y1="-336.7399" x2="-767.2742" y2="-336.7399" gradientTransform="matrix(1 0 0 1 884.7571 420)">
			<stop  offset="0" style="stop-color:#665A4A"/>
			<stop  offset="9.099999e-02" style="stop-color:#6D6251"/>
			<stop  offset="0.311" style="stop-color:#78705F"/>
			<stop  offset="0.5" style="stop-color:#7C7563"/>
			<stop  offset="0.7691" style="stop-color:#7A7361"/>
			<stop  offset="0.8921" style="stop-color:#746B59"/>
			<stop  offset="0.9853" style="stop-color:#695F4D"/>
			<stop  offset="1" style="stop-color:#675C4A"/>
		</linearGradient>
		<path class="st3" d="M117,114.7c-1,7.7-7.6,13.4-15.2,13.4H57.4C38,128.1,5.9,98.2,5.9,70.3l0,0c0-17.6,13.9-31.9,31.2-31.9h63.5
			c8.9,0,16.2,7.4,16.2,16.6v34.8C116.7,95.1,118.2,105.9,117,114.7z"/>
	</g>
	<g>
		<path class="st4" d="M51.5,2c1.8,1.6,3.2,4.4,3.2,8.2c0,3.4-1.1,6.2-3,8c-1.1,1.1-3.1,2.2-6,2.2c-2.9,0-4.8-1.2-6-2.2
			c-1.9-1.8-3-4.6-3-8c0-3.8,1.4-6.6,3.2-8.2c1.9-1.7,4.1-2,5.8-2C47.4,0,49.6,0.3,51.5,2z M42.8,5.2c-0.4,0.6-1,2-1,5s0.6,4.4,1,5
			c0.6,0.9,1.5,1.8,2.9,1.8s2.4-0.9,2.9-1.8c0.4-0.7,1-2.1,1-5c0-3-0.7-4.3-1-5c-0.8-1.3-1.9-1.7-2.9-1.7S43.6,3.9,42.8,5.2z"/>
		<path class="st4" d="M71.3,3.9h-8.9v4.3h7.1v3.4h-7.1v8.6h-4.6V0.3h13.5V3.9z"/>
		<path class="st4" d="M87.2,3.9h-8.9v4.3h7.1v3.4h-7.1v8.6h-4.6V0.3h13.5V3.9z"/>
	</g>
	<path class="st5" d="M61,68.5c0.8,1.2,1.9,3.6,1.9,9.2s-1.1,8-1.9,9.2c-1.7,2.4-3.8,2.9-5.4,2.9s-3.8-0.4-5.4-2.9
		c-0.8-1.2-1.9-3.6-1.9-9.2s1.1-8,1.9-9.2c1.7-2.4,3.8-2.9,5.4-2.9S59.4,66.1,61,68.5z M54.1,84.7c0.2,0.3,0.7,0.8,1.5,0.8
		s1.3-0.5,1.5-0.8c0.5-0.8,0.8-2.4,0.8-7s-0.2-6.2-0.8-7c-0.2-0.3-0.7-0.8-1.5-0.8s-1.3,0.5-1.5,0.8c-0.5,0.8-0.8,2.4-0.8,7
		S53.6,83.9,54.1,84.7z"/>
	<path class="st5" d="M65.8,66h4.7l3.8,10.7c0.3,0.9,0.9,3.4,1.1,4.6c-0.2-2.3-0.4-5.2-0.4-7.1V66H79v23.3h-3.9l-4.4-11.9
		c-0.5-1.3-0.8-2.4-1.4-4.8c0.1,1,0.4,5.6,0.4,6.9v9.8h-3.9V66z"/>
</g>
</svg>

<?xml version="1.0" encoding="UTF-8" standalone="no"?>
<!DOCTYPE svg PUBLIC "-//W3C//DTD SVG 1.1//EN" "http://www.w3.org/Graphics/SVG/1.1/DTD/svg11.dtd">
<svg width="100%" height="100%" viewBox="0 0 122 131" version="1.1" xmlns="http://www.w3.org/2000/svg" xmlns:xlink="http://www.w3.org/1999/xlink" xml:space="preserve" xmlns:serif="http://www.serif.com/" style="fill-rule:evenodd;clip-rule:evenodd;stroke-linecap:round;stroke-linejoin:round;stroke-miterlimit:1.5;">
    <g>
        <g>
            <path d="M117,125.4C115,128.8 111.4,130.8 107.5,130.8L48.3,130.8C28.7,130.8 0,90.5 0,70.9L0,51.1C0,37.1 11.3,25.8 25.3,25.8L108.5,25.8C115.4,25.8 121,31.4 121,38.3L121,93.9C121,99.6 122.9,115.3 117,125.4Z" style="fill:rgb(3,4,0);fill-rule:nonzero;"/>
            <path d="M116.7,110.7C116,120.5 108,128.1 98.4,128.1L48.9,128.1C29.5,128.1 5.8,90.2 5.8,70.3L5.8,53.3C5.8,39.2 17,27.7 30.7,27.7L104.4,27.7C111.2,27.7 116.6,33.3 116.6,40.2L116.6,93.8C116.7,97.2 117.2,104 116.7,110.7Z" style="fill:url(#_Linear1);fill-rule:nonzero;"/>
            <path d="M115.4,114.9C114.1,122.6 107.6,128.1 100,128.1L65.4,128.1C46.6,128.1 5.9,90.8 5.9,71.6L5.9,65.8C5.9,48 20,33.5 37.4,33.5L104.6,33.5C111.4,33.5 116.8,39.1 116.8,46L116.8,93.8C116.7,97.8 116.7,107 115.4,114.9Z" style="fill:url(#_Linear2);fill-rule:nonzero;"/>
            <path d="M117,114.7C116,122.4 109.4,128.1 101.8,128.1L57.4,128.1C38,128.1 5.9,98.2 5.9,70.3C5.9,52.7 19.8,38.4 37.1,38.4L100.6,38.4C109.5,38.4 116.8,45.8 116.8,55L116.8,89.8C116.7,95.1 118.2,105.9 117,114.7Z" style="fill:url(#_Linear3);fill-rule:nonzero;"/>
        </g>
        <g transform="matrix(1,0,0,1,-47.15,56)">
            <path d="M118.5,17.8C118.4,16.7 118.1,15.5 117.5,14.5C116.7,12.8 115.4,12.2 113.6,12.2C111.5,12.2 110.2,13.2 109.1,15.4C108.4,16.9 108.1,18.8 108.1,21.5C108.1,24.3 108.4,26.2 109.1,27.7C110.3,30.3 112.3,30.9 113.6,30.9C115,30.9 116.4,30.5 117.5,29C118.2,27.9 118.6,26.4 118.7,25.3L124.6,25.9C124.3,28.9 122.8,31.4 121.3,32.8C119.8,34.3 117.3,35.8 113.6,35.8C107.8,35.8 104.6,32.4 103.3,30C102,27.6 101.2,24.3 101.2,21.6C101.2,16.9 102.9,13.1 105.2,10.7C108.1,7.8 111.5,7.5 113.6,7.5C115.7,7.5 119,7.9 121.5,10.4C122.1,10.8 124.3,13.3 124.7,17.4L118.5,17.8Z" style="fill:rgb(237,222,203);fill-rule:nonzero;"/>
        </g>
        <g transform="matrix(1,0,0,1,-1.10954,-2.01639)">
            <circle cx="66.91" cy="79.316" r="26.899" style="fill:none;stroke:rgb(237,222,203);stroke-width:6px;"/>
        </g>
    </g>
    <defs>
        <linearGradient id="_Linear1" x1="0" y1="0" x2="1" y2="0" gradientUnits="userSpaceOnUse" gradientTransform="matrix(111.058,0,0,111.058,5.87,77.98)"><stop offset="0" style="stop-color:rgb(33,29,20);stop-opacity:1"/><stop offset="0.03" style="stop-color:rgb(56,52,41);stop-opacity:1"/><stop offset="0.04" style="stop-color:rgb(44,41,32);stop-opacity:1"/><stop offset="0.05" style="stop-color:rgb(33,29,23);stop-opacity:1"/><stop offset="0.07" style="stop-color:rgb(26,23,17);stop-opacity:1"/><stop offset="0.13" style="stop-color:rgb(24,21,16);stop-opacity:1"/><stop offset="0.49" style="stop-color:rgb(31,30,26);stop-opacity:1"/><stop offset="0.9" style="stop-color:rgb(66,58,45);stop-opacity:1"/><stop offset="0.93" style="stop-color:rgb(68,60,46);stop-opacity:1"/><stop offset="0.95" style="stop-color:rgb(75,66,51);stop-opacity:1"/><stop offset="0.96" style="stop-color:rgb(87,77,60);stop-opacity:1"/><stop offset="0.96" style="stop-color:rgb(93,82,64);stop-opacity:1"/><stop offset="0.99" style="stop-color:rgb(51,45,34);stop-opacity:1"/><stop offset="1" style="stop-color:rgb(33,29,20);stop-opacity:1"/></linearGradient>
        <linearGradient id="_Linear2" x1="0" y1="0" x2="1" y2="0" gradientUnits="userSpaceOnUse" gradientTransform="matrix(110.87,0,0,110.87,5.87,80.835)"><stop offset="0" style="stop-color:rgb(124,117,99);stop-opacity:1"/><stop offset="0.98" style="stop-color:rgb(56,50,38);stop-opacity:1"/><stop offset="1" style="stop-color:rgb(56,50,38);stop-opacity:1"/></linearGradient>
        <linearGradient id="_Linear3" x1="0" y1="0" x2="1" y2="0" gradientUnits="userSpaceOnUse" gradientTransform="matrix(111.623,0,0,111.623,5.86,83.2601)"><stop offset="0" style="stop-color:rgb(102,90,74);stop-opacity:1"/><stop offset="0.09" style="stop-color:rgb(109,98,81);stop-opacity:1"/><stop offset="0.31" style="stop-color:rgb(120,112,95);stop-opacity:1"/><stop offset="0.5" style="stop-color:rgb(124,117,99);stop-opacity:1"/><stop offset="0.77" style="stop-color:rgb(122,115,97);stop-opacity:1"/><stop offset="0.89" style="stop-color:rgb(116,107,89);stop-opacity:1"/><stop offset="0.99" style="stop-color:rgb(105,95,77);stop-opacity:1"/><stop offset="1" style="stop-color:rgb(103,92,74);stop-opacity:1"/></linearGradient>
    </defs>
</svg>
